images/portal/4265.svg

<?xml version="1.0" standalone="no"?><!DOCTYPE svg PUBLIC "-//W3C//DTD SVG 1.1//EN" "http://www.w3.org/Graphics/SVG/1.1/DTD/svg11.dtd"><svg xmlns:xlink="http://www.w3.org/1999/xlink" version="1.1" class="highcharts-root" style="font-family:arial;font-size:9pt;" xmlns="http://www.w3.org/2000/svg" width="485" height="415"><desc>Created with Highstock 5.0.14</desc><defs><clipPath id="highcharts-9n8di75-7"><rect x="0" y="0" width="432" height="189" fill="none"></rect></clipPath><clipPath id="highcharts-9n8di75-8"><rect x="0" y="0" width="432" height="189" fill="none"></rect></clipPath></defs><rect fill="#fbfbfb" class="highcharts-background" x="0" y="0" width="485" height="415" rx="0" ry="0"></rect><rect fill="none" class="highcharts-plot-background" x="43" y="142" width="432" height="189"></rect><g class="highcharts-label" style="cursor:pointer;" transform="translate(10,451)"><text x="0" y="0"><tspan>&gt; Indikator-Details</tspan></text></g><g class="highcharts-pane-group"></g><g class="highcharts-grid highcharts-xaxis-grid "><path fill="none" class="highcharts-grid-line" d="M 69.5 142 L 69.5 331" opacity="1"></path><path fill="none" class="highcharts-grid-line" d="M 96.5 142 L 96.5 331" opacity="1"></path><path fill="none" class="highcharts-grid-line" d="M 123.5 142 L 123.5 331" opacity="1"></path><path fill="none" class="highcharts-grid-line" d="M 150.5 142 L 150.5 331" opacity="1"></path><path fill="none" class="highcharts-grid-line" d="M 177.5 142 L 177.5 331" opacity="1"></path><path fill="none" class="highcharts-grid-line" d="M 204.5 142 L 204.5 331" opacity="1"></path><path fill="none" class="highcharts-grid-line" d="M 231.5 142 L 231.5 331" opacity="1"></path><path fill="none" class="highcharts-grid-line" d="M 258.5 142 L 258.5 331" opacity="1"></path><path fill="none" class="highcharts-grid-line" d="M 285.5 142 L 285.5 331" opacity="1"></path><path fill="none" class="highcharts-grid-line" d="M 312.5 142 L 312.5 331" opacity="1"></path><path fill="none" class="highcharts-grid-line" d="M 339.5 142 L 339.5 331" opacity="1"></path><path fill="none" class="highcharts-grid-line" d="M 366.5 142 L 366.5 331" opacity="1"></path><path fill="none" class="highcharts-grid-line" d="M 393.5 142 L 393.5 331" opacity="1"></path><path fill="none" class="highcharts-grid-line" d="M 420.5 142 L 420.5 331" opacity="1"></path><path fill="none" class="highcharts-grid-line" d="M 447.5 142 L 447.5 331" opacity="1"></path><path fill="none" class="highcharts-grid-line" d="M 474.5 142 L 474.5 331" opacity="1"></path><path fill="none" class="highcharts-grid-line" d="M 42.5 142 L 42.5 331" opacity="1"></path></g><g class="highcharts-grid highcharts-yaxis-grid "><path fill="none" stroke="#e6e6e6" stroke-width="1" class="highcharts-grid-line" d="M 43 331.5 L 475 331.5" opacity="1"></path><path fill="none" stroke="#e6e6e6" stroke-width="1" class="highcharts-grid-line" d="M 43 268.5 L 475 268.5" opacity="1"></path><path fill="none" stroke="#e6e6e6" stroke-width="1" class="highcharts-grid-line" d="M 43 205.5 L 475 205.5" opacity="1"></path><path fill="none" stroke="#e6e6e6" stroke-width="1" class="highcharts-grid-line" d="M 43 141.5 L 475 141.5" opacity="1"></path></g><g class="highcharts-grid highcharts-yaxis-grid "></g><rect fill="none" class="highcharts-plot-border" x="43" y="142" width="432" height="189"></rect><g class="highcharts-axis highcharts-xaxis "><path fill="none" class="highcharts-axis-line" stroke="#ccd6eb" stroke-width="1" d="M 43 331.5 L 475 331.5"></path></g><g class="highcharts-axis highcharts-yaxis "><path fill="none" class="highcharts-axis-line" d="M 43 142 L 43 331"></path></g><g class="highcharts-axis highcharts-yaxis "><path fill="none" class="highcharts-axis-line" d="M 475 142 L 475 331"></path></g><g class="highcharts-series-group"><g class="highcharts-series highcharts-series-0 highcharts-column-series highcharts-color-undefined " transform="translate(43,142) scale(1 1)" clip-path="url(#highcharts-9n8di75-8)"><rect x="250" y="49" width="13" height="71" fill="#FF8028" class="highcharts-point"></rect><rect x="277" y="38" width="13" height="74" fill="#FF8028" class="highcharts-point"></rect><rect x="304" y="45" width="13" height="63" fill="#FF8028" class="highcharts-point"></rect><rect x="331" y="78" width="13" height="21" fill="#FF8028" class="highcharts-point"></rect><rect x="358" y="67" width="13" height="22" fill="#FF8028" class="highcharts-point"></rect><rect x="385" y="61" width="13" height="23" fill="#FF8028" class="highcharts-point"></rect><rect x="412" y="57" width="13" height="22" fill="#FF8028" class="highcharts-point"></rect></g><g class="highcharts-markers highcharts-series-0 highcharts-column-series highcharts-color-undefined " transform="translate(43,142) scale(1 1)" clip-path="none"></g><g class="highcharts-series highcharts-series-1 highcharts-column-series highcharts-color-undefined " transform="translate(43,142) scale(1 1)" clip-path="url(#highcharts-9n8di75-8)"><rect x="250" y="120" width="13" height="67" fill="#DC440E" class="highcharts-point"></rect><rect x="277" y="112" width="13" height="75" fill="#DC440E" class="highcharts-point"></rect><rect x="304" y="108" width="13" height="79" fill="#DC440E" class="highcharts-point"></rect><rect x="331" y="99" width="13" height="88" fill="#DC440E" class="highcharts-point"></rect><rect x="358" y="89" width="13" height="98" fill="#DC440E" class="highcharts-point"></rect><rect x="385" y="84" width="13" height="102" fill="#DC440E" class="highcharts-point"></rect><rect x="412" y="79" width="13" height="107" fill="#DC440E" class="highcharts-point"></rect></g><g class="highcharts-markers highcharts-series-1 highcharts-column-series highcharts-color-undefined " transform="translate(43,142) scale(1 1)" clip-path="none"></g><g class="highcharts-series highcharts-series-2 highcharts-column-series highcharts-color-undefined " transform="translate(43,142) scale(1 1)" clip-path="url(#highcharts-9n8di75-8)"><rect x="250" y="187" width="13" height="3" fill="#B00000" class="highcharts-point"></rect><rect x="277" y="187" width="13" height="3" fill="#B00000" class="highcharts-point"></rect><rect x="304" y="187" width="13" height="3" fill="#B00000" class="highcharts-point"></rect><rect x="331" y="187" width="13" height="3" fill="#B00000" class="highcharts-point"></rect><rect x="358" y="187" width="13" height="3" fill="#B00000" class="highcharts-point"></rect><rect x="385" y="186" width="13" height="4" fill="#B00000" class="highcharts-point"></rect><rect x="412" y="186" width="13" height="4" fill="#B00000" class="highcharts-point"></rect></g><g class="highcharts-markers highcharts-series-2 highcharts-column-series highcharts-color-undefined " transform="translate(43,142) scale(1 1)" clip-path="none"></g><g class="highcharts-series highcharts-series-3 highcharts-column-series highcharts-color-undefined " transform="translate(43,142) scale(1 1)" clip-path="url(#highcharts-9n8di75-8)"><rect x="7" y="167" width="13" height="23" fill="#661200" class="highcharts-point"></rect><rect x="34" y="130" width="13" height="60" fill="#661200" class="highcharts-point"></rect><rect x="61" y="107" width="13" height="83" fill="#661200" class="highcharts-point"></rect><rect x="88" y="100" width="13" height="90" fill="#661200" class="highcharts-point"></rect><rect x="115" y="90" width="13" height="100" fill="#661200" class="highcharts-point"></rect><rect x="142" y="87" width="13" height="103" fill="#661200" class="highcharts-point"></rect><rect x="169" y="78" width="13" height="112" fill="#661200" class="highcharts-point"></rect><rect x="196" y="70" width="13" height="120" fill="#661200" class="highcharts-point"></rect><rect x="223" y="57" width="13" height="133" fill="#661200" class="highcharts-point"></rect></g><g class="highcharts-markers highcharts-series-3 highcharts-column-series highcharts-color-undefined " transform="translate(43,142) scale(1 1)" clip-path="none"></g></g><text x="10" text-anchor="start" class="highcharts-title" style="color:#000000;font-size:1.1em;font-weight:bold;fill:#000000;" y="20"><tspan>Tätigkeiten mit gentechnisch veränderten und pathogenen</tspan><tspan dy="16.200000000000003" x="10">Organismen</tspan><title>Tätigkeiten mit gentechnisch veränderten und pathogenen Organismen</title></text><text x="10" text-anchor="start" class="highcharts-subtitle" style="color:#000000;font-size:0.9em;fill:#000000;" y="55"><tspan>Anzahl Meldungen</tspan></text><g class="highcharts-legend" transform="translate(10,54)"><rect fill="none" class="highcharts-legend-box" rx="0" ry="0" x="0" y="0" width="407" height="76" visibility="visible"></rect><g><g><g class="highcharts-legend-item highcharts-column-series highcharts-color-undefined highcharts-series-0" transform="translate(12,7)"><text x="21" style="color:#333333;font-size:1em;font-weight:normal;cursor:pointer;fill:#333333;" text-anchor="start" y="15"><tspan>BS: Klasse 1: Kein oder vernachlässigbar kleines Risiko</tspan></text><rect x="2" y="4" width="12" height="12" fill="#FF8028" class="highcharts-point"></rect></g><g class="highcharts-legend-item highcharts-column-series highcharts-color-undefined highcharts-series-1" transform="translate(12,26)"><text x="21" y="15" style="color:#333333;font-size:1em;font-weight:normal;cursor:pointer;fill:#333333;" text-anchor="start"><tspan>BS: Klasse 2: Geringes Risiko</tspan></text><rect x="2" y="4" width="12" height="12" fill="#DC440E" class="highcharts-point"></rect></g><g class="highcharts-legend-item highcharts-column-series highcharts-color-undefined highcharts-series-2" transform="translate(212.9375,26)"><text x="21" y="15" style="color:#333333;font-size:1em;font-weight:normal;cursor:pointer;fill:#333333;" text-anchor="start"><tspan>BS: Klasse 3: Mässiges Risiko</tspan></text><rect x="2" y="4" width="12" height="12" fill="#B00000" class="highcharts-point"></rect></g><g class="highcharts-legend-item highcharts-column-series highcharts-color-undefined highcharts-series-3" transform="translate(12,45)"><text x="21" y="15" style="color:#333333;font-size:1em;font-weight:normal;cursor:pointer;fill:#333333;" text-anchor="start"><tspan>BS: Tätigkeiten insgesamt</tspan></text><rect x="2" y="4" width="12" height="12" fill="#661200" class="highcharts-point"></rect></g></g></g></g><g class="highcharts-axis-labels highcharts-xaxis-labels "><text x="59.09272486435067" style="color:#000000;cursor:default;font-size:0.9em;fill:#000000;" text-anchor="end" transform="translate(0,0) rotate(-45 59.09272486435067 347)" y="347" opacity="1"><tspan>2001</tspan></text><text x="86.09272486435067" style="color:#000000;cursor:default;font-size:0.9em;fill:#000000;" text-anchor="end" transform="translate(0,0) rotate(-45 86.09272486435067 347)" y="347" opacity="1"><tspan>2002</tspan></text><text x="113.09272486435067" style="color:#000000;cursor:default;font-size:0.9em;fill:#000000;" text-anchor="end" transform="translate(0,0) rotate(-45 113.09272486435067 347)" y="347" opacity="1"><tspan>2003</tspan></text><text x="140.09272486435069" style="color:#000000;cursor:default;font-size:0.9em;fill:#000000;" text-anchor="end" transform="translate(0,0) rotate(-45 140.09272486435069 347)" y="347" opacity="1"><tspan>2004</tspan></text><text x="167.09272486435069" style="color:#000000;cursor:default;font-size:0.9em;fill:#000000;" text-anchor="end" transform="translate(0,0) rotate(-45 167.09272486435069 347)" y="347" opacity="1"><tspan>2005</tspan></text><text x="194.09272486435069" style="color:#000000;cursor:default;font-size:0.9em;fill:#000000;" text-anchor="end" transform="translate(0,0) rotate(-45 194.09272486435069 347)" y="347" opacity="1"><tspan>2006</tspan></text><text x="221.09272486435069" style="color:#000000;cursor:default;font-size:0.9em;fill:#000000;" text-anchor="end" transform="translate(0,0) rotate(-45 221.09272486435069 347)" y="347" opacity="1"><tspan>2007</tspan></text><text x="248.09272486435066" style="color:#000000;cursor:default;font-size:0.9em;fill:#000000;" text-anchor="end" transform="translate(0,0) rotate(-45 248.09272486435066 347)" y="347" opacity="1"><tspan>2008</tspan></text><text x="275.09272486435066" style="color:#000000;cursor:default;font-size:0.9em;fill:#000000;" text-anchor="end" transform="translate(0,0) rotate(-45 275.09272486435066 347)" y="347" opacity="1"><tspan>2009</tspan></text><text x="302.09272486435066" style="color:#000000;cursor:default;font-size:0.9em;fill:#000000;" text-anchor="end" transform="translate(0,0) rotate(-45 302.09272486435066 347)" y="347" opacity="1"><tspan>2010</tspan></text><text x="329.09272486435066" style="color:#000000;cursor:default;font-size:0.9em;fill:#000000;" text-anchor="end" transform="translate(0,0) rotate(-45 329.09272486435066 347)" y="347" opacity="1"><tspan>2011</tspan></text><text x="356.09272486435066" style="color:#000000;cursor:default;font-size:0.9em;fill:#000000;" text-anchor="end" transform="translate(0,0) rotate(-45 356.09272486435066 347)" y="347" opacity="1"><tspan>2012</tspan></text><text x="383.09272486435066" style="color:#000000;cursor:default;font-size:0.9em;fill:#000000;" text-anchor="end" transform="translate(0,0) rotate(-45 383.09272486435066 347)" y="347" opacity="1"><tspan>2013</tspan></text><text x="410.09272486435066" style="color:#000000;cursor:default;font-size:0.9em;fill:#000000;" text-anchor="end" transform="translate(0,0) rotate(-45 410.09272486435066 347)" y="347" opacity="1"><tspan>2014</tspan></text><text x="437.09272486435066" style="color:#000000;cursor:default;font-size:0.9em;fill:#000000;" text-anchor="end" transform="translate(0,0) rotate(-45 437.09272486435066 347)" y="347" opacity="1"><tspan>2015</tspan></text><text x="464.09272486435066" style="color:#000000;cursor:default;font-size:0.9em;fill:#000000;" text-anchor="end" transform="translate(0,0) rotate(-45 464.09272486435066 347)" y="347" opacity="1"><tspan>2016</tspan></text></g><g class="highcharts-axis-labels highcharts-yaxis-labels "><text x="28" style="color:#000000;cursor:default;font-size:0.9em;fill:#000000;" text-anchor="end" transform="translate(0,0)" y="336" opacity="1"><tspan>0</tspan></text><text x="28" style="color:#000000;cursor:default;font-size:0.9em;fill:#000000;" text-anchor="end" transform="translate(0,0)" y="273" opacity="1"><tspan>200</tspan></text><text x="28" style="color:#000000;cursor:default;font-size:0.9em;fill:#000000;" text-anchor="end" transform="translate(0,0)" y="210" opacity="1"><tspan>400</tspan></text><text x="28" style="color:#000000;cursor:default;font-size:0.9em;fill:#000000;" text-anchor="end" transform="translate(0,0)" y="147" opacity="1"><tspan>600</tspan></text></g><g class="highcharts-axis-labels highcharts-yaxis-labels "></g><text x="10" class="highcharts-credits" text-anchor="start" style="cursor:default;color:#000000;font-size:0.8em;fill:#000000;" y="400"><tspan>Quelle: Kantonales Laboratorium Basel-Stadt; Sicherheitsinspektorat Basel-Landschaft</tspan></text></svg>

<svg class="highcharts-root" xmlns="http://www.w3.org/2000/svg" viewBox="0 0 485 415" font-family="Arial" font-size="12">
    <defs>
        <clipPath id="a">
            <path fill="none" d="M0 0h432v189H0z"/>
        </clipPath>
    </defs>
    <rect fill="#fbfbfb" class="highcharts-background" width="485" height="415" rx="0" ry="0"/>
    <path fill="none" class="highcharts-plot-background" d="M43 142h432v189H43z"/>
    <text transform="translate(10 451)" class="highcharts-label" cursor="pointer">
        <tspan>&gt; Indikator-Details</tspan>
    </text>
    <g class="highcharts-grid highcharts-xaxis-grid">
        <path fill="none" class="highcharts-grid-line" d="M69.5 142v189m0-189v189m27-189v189m0-189v189m27-189v189m0-189v189m27-189v189m0-189v189m27-189v189m0-189v189m27-189v189m0-189v189m27-189v189m0-189v189m27-189v189m0-189v189m27-189v189m0-189v189m27-189v189m0-189v189m27-189v189m0-189v189m27-189v189m0-189v189m27-189v189m0-189v189m27-189v189m0-189v189m27-189v189m0-189v189m27-189v189m0-189v189m-432-189v189m0-189v189"/>
    </g>
    <g class="highcharts-grid highcharts-yaxis-grid">
        <path fill="none" stroke="#e6e6e6" class="highcharts-grid-line" d="M43 331.5h432m-432-63h432m-432-63h432m-432-64h432"/>
    </g>
    <path fill="none" class="highcharts-plot-border" d="M43 142h432v189H43z"/>
    <g class="highcharts-axis highcharts-xaxis">
        <path fill="none" class="highcharts-axis-line" stroke="#ccd6eb" d="M43 331.5h432"/>
    </g>
    <g class="highcharts-axis highcharts-yaxis">
        <path fill="none" class="highcharts-axis-line" d="M43 142v189"/>
    </g>
    <g class="highcharts-axis highcharts-yaxis">
        <path fill="none" class="highcharts-axis-line" d="M475 142v189"/>
    </g>
    <g class="highcharts-series-group">
        <g class="highcharts-series highcharts-series-0 highcharts-column-series highcharts-color-undefined highcharts-tracker" transform="translate(43 142)" clip-path="url(#a)">
            <path fill="#FF8028" class="highcharts-point" d="M250 49h13v71h-13zm27-11h13v74h-13zm27 7h13v63h-13zm27 33h13v21h-13zm27-11h13v22h-13zm27-6h13v23h-13zm27-4h13v22h-13z"/>
        </g>
        <g class="highcharts-series highcharts-series-1 highcharts-column-series highcharts-color-undefined highcharts-tracker" transform="translate(43 142)" clip-path="url(#a)">
            <path fill="#DC440E" class="highcharts-point" d="M250 120h13v67h-13zm27-8h13v75h-13zm27-4h13v79h-13zm27-9h13v88h-13zm27-10h13v98h-13zm27-5h13v102h-13zm27-5h13v107h-13z"/>
        </g>
        <g class="highcharts-series highcharts-series-2 highcharts-column-series highcharts-color-undefined highcharts-tracker" transform="translate(43 142)" clip-path="url(#a)">
            <path fill="#B00000" class="highcharts-point" d="M250 187h13v3h-13zm27 0h13v3h-13zm27 0h13v3h-13zm27 0h13v3h-13zm27 0h13v3h-13zm27-1h13v4h-13zm27 0h13v4h-13z"/>
        </g>
        <g class="highcharts-series highcharts-series-3 highcharts-column-series highcharts-color-undefined highcharts-tracker" transform="translate(43 142)" clip-path="url(#a)">
            <path fill="#661200" class="highcharts-point" d="M7 167h13v23H7zm27-37h13v60H34zm27-23h13v83H61zm27-7h13v90H88zm27-10h13v100h-13zm27-3h13v103h-13zm27-9h13v112h-13zm27-8h13v120h-13zm27-13h13v133h-13z"/>
        </g>
    </g>
    <text x="10" class="highcharts-title" y="20" color="#000" font-size="1.1em" font-weight="700">
        <tspan>Tätigkeiten mit gentechnisch veränderten und pathogenen</tspan><tspan dy="16.2" x="10">Organismen</tspan><title>Tätigkeiten mit gentechnisch veränderten und pathogenen Organismen</title>
    </text>
    <text x="10" class="highcharts-subtitle" y="55" color="#000" font-size=".9em">
        <tspan>Anzahl Meldungen</tspan>
    </text>
    <g class="highcharts-legend" transform="translate(10 54)">
        <rect fill="none" class="highcharts-legend-box" rx="0" ry="0" width="407" height="76"/>
        <g class="highcharts-legend-item highcharts-column-series highcharts-color-undefined highcharts-series-0">
            <text x="21" y="15" color="#333" font-size="1em" font-weight="400" cursor="pointer" fill="#333" transform="translate(12 7)">
                <tspan>BS: Klasse 1: Kein oder vernachlässigbar kleines Risiko</tspan>
            </text>
            <path fill="#FF8028" class="highcharts-point" d="M14 11h12v12H14z"/>
        </g>
        <g class="highcharts-legend-item highcharts-column-series highcharts-color-undefined highcharts-series-1">
            <text x="21" y="15" color="#333" font-size="1em" font-weight="400" cursor="pointer" fill="#333" transform="translate(12 26)">
                <tspan>BS: Klasse 2: Geringes Risiko</tspan>
            </text>
            <path fill="#DC440E" class="highcharts-point" d="M14 30h12v12H14z"/>
        </g>
        <g class="highcharts-legend-item highcharts-column-series highcharts-color-undefined highcharts-series-2">
            <text x="21" y="15" color="#333" font-size="1em" font-weight="400" cursor="pointer" fill="#333" transform="translate(212.938 26)">
                <tspan>BS: Klasse 3: Mässiges Risiko</tspan>
            </text>
            <path fill="#B00000" class="highcharts-point" d="M214.938 30h12v12h-12z"/>
        </g>
        <g class="highcharts-legend-item highcharts-column-series highcharts-color-undefined highcharts-series-3">
            <text x="21" y="15" color="#333" font-size="1em" font-weight="400" cursor="pointer" fill="#333" transform="translate(12 45)">
                <tspan>BS: Tätigkeiten insgesamt</tspan>
            </text>
            <path fill="#661200" class="highcharts-point" d="M14 49h12v12H14z"/>
        </g>
    </g>
    <g class="highcharts-axis-labels highcharts-xaxis-labels" text-anchor="end" color="#000" cursor="default" font-size=".9em">
        <text x="59.093" transform="rotate(-45 59.093 347)" y="347">
            <tspan>2001</tspan>
        </text>
        <text x="86.093" transform="rotate(-45 86.093 347)" y="347">
            <tspan>2002</tspan>
        </text>
        <text x="113.093" transform="rotate(-45 113.093 347)" y="347">
            <tspan>2003</tspan>
        </text>
        <text x="140.093" transform="rotate(-45 140.093 347)" y="347">
            <tspan>2004</tspan>
        </text>
        <text x="167.093" transform="rotate(-45 167.093 347)" y="347">
            <tspan>2005</tspan>
        </text>
        <text x="194.093" transform="rotate(-45 194.093 347)" y="347">
            <tspan>2006</tspan>
        </text>
        <text x="221.093" transform="rotate(-45 221.093 347)" y="347">
            <tspan>2007</tspan>
        </text>
        <text x="248.093" transform="rotate(-45 248.093 347)" y="347">
            <tspan>2008</tspan>
        </text>
        <text x="275.093" transform="rotate(-45 275.093 347)" y="347">
            <tspan>2009</tspan>
        </text>
        <text x="302.093" transform="rotate(-45 302.093 347)" y="347">
            <tspan>2010</tspan>
        </text>
        <text x="329.093" transform="rotate(-45 329.093 347)" y="347">
            <tspan>2011</tspan>
        </text>
        <text x="356.093" transform="rotate(-45 356.093 347)" y="347">
            <tspan>2012</tspan>
        </text>
        <text x="383.093" transform="rotate(-45 383.093 347)" y="347">
            <tspan>2013</tspan>
        </text>
        <text x="410.093" transform="rotate(-45 410.093 347)" y="347">
            <tspan>2014</tspan>
        </text>
        <text x="437.093" transform="rotate(-45 437.093 347)" y="347">
            <tspan>2015</tspan>
        </text>
        <text x="464.093" transform="rotate(-45 464.093 347)" y="347">
            <tspan>2016</tspan>
        </text>
    </g>
    <g class="highcharts-axis-labels highcharts-yaxis-labels" text-anchor="end" color="#000" cursor="default" font-size=".9em">
        <text x="28" y="336">
            <tspan>0</tspan>
        </text>
        <text x="28" y="273">
            <tspan>200</tspan>
        </text>
        <text x="28" y="210">
            <tspan>400</tspan>
        </text>
        <text x="28" y="147">
            <tspan>600</tspan>
        </text>
    </g>
    <text x="10" class="highcharts-credits" y="400" cursor="default" color="#000" font-size=".8em">
        <tspan>Quelle: Kantonales Laboratorium Basel-Stadt; Sicherheitsinspektorat Basel-Landschaft</tspan>
    </text>
</svg>
